X:013
T:Mick O'Connor's
T:Rafferty's Mustache
M:4/4
L:1/8
B:Bulmer &amp; Sharpley Vol 3 No. 20
B:Book by Willie Kelly, source for Mike Rafferty
R:reel
D:Altan, Horse With a Heart, 1st track, 4th reel (not named)
D: Mike and Mary Rafferty, The Dangerous Reel, 2nd track, 2nd reel
Z:Lorna LaVerne
K:G
|: DEFA G2AG | FDFA d2fa | g2ge fddc | ABcA EFGE |
DEFA G2AG | FDFA defa | g2ge fddB | cAGE FDD2 :|
|: defa g2ag | fdfa egag | fdcA G2FG | ABcA dcAd |
defa g2ag | fdfa egag | fddc ABcA | EFGE FDD2 :|
